X: 20186
T: Jock Wilson's Ball
R: reel
M: 4/4
K: Bminor
B|d2 c2 B2 f2|B>cd>e f2 B>c|d2 c2 B2 f2|A2 e>A c>AA
B|d2 c2 B2 f2|B>cd>e f2 B>c|d>B c<A A2 eA|A2 e>A c>AA||
B|d2 ad d2 fd|d2 ad f2 B>c|d2 ad d2 fA|A2 e>A c>A AB|
d2 ad d2 fd|d2 ad f2 B>c|d>ef>g a2 a>f|g>ef>d c<ee||

